X: 35792
T: Sally Sloane's Barn Dance
R: jig
M: 6/8
K: Dmajor
DAF DAF|EAG EAG|FAd dcd|fee e3|
DAF DAF|EAG EAG|FAd ede|ddd d3:|
|:f3 d3|eee e3|g3 c3|ddd d3|
f3 d3|eee e3|g3 c3|ddd d3:|
|:A3 GFG|A3 GFG|A2 F d2 A|fed cBA|
G3 FEF|G3 FEF|GBA GFE|DDD D3:|

